app/content/themes/irontheme/images/general/water-cycle.svg

<svg width="36" height="36" viewBox="0 0 36 36" fill="none" xmlns="http://www.w3.org/2000/svg">
<g clip-path="url(#clip0)">
<path d="M25.5403 13.2699C25.5381 13.267 25.536 13.2642 25.5338 13.2614L18.5872 4.31675C18.4544 4.14568 18.2501 4.04541 18.0336 4.04492C18.033 4.04492 18.0325 4.04492 18.032 4.04492C17.8161 4.04492 17.612 4.1442 17.4788 4.31422L10.5016 13.212C10.4891 13.228 10.4774 13.2443 10.4664 13.2612C9.06826 14.9831 8.29932 17.1501 8.29932 19.3729C8.29932 24.722 12.651 29.0738 18.0001 29.0738C23.3491 29.0738 27.7008 24.722 27.7008 19.3729C27.7008 17.1559 26.9338 14.9897 25.5403 13.2699ZM18 27.6676C13.4263 27.6676 9.70536 23.9466 9.70536 19.3729C9.70536 17.449 10.379 15.5741 11.602 14.0936C11.6221 14.0693 11.6403 14.0439 11.6566 14.0177L18.0293 5.89077L24.407 14.1028C24.4153 14.1144 24.4239 14.1256 24.433 14.1368C25.6336 15.6099 26.2947 17.4694 26.2947 19.3729C26.2947 23.9466 22.5737 27.6676 18 27.6676Z" fill="url(#paint0_linear)"/>
<path d="M24.3255 19.9878C23.9475 19.8986 23.5689 20.1328 23.4798 20.5108C23.0793 22.2097 21.8739 23.6214 20.2556 24.2871C19.8965 24.4348 19.7251 24.8457 19.8729 25.2048C19.9846 25.4764 20.2468 25.6405 20.5234 25.6405C20.6125 25.6405 20.7031 25.6235 20.7906 25.5875C22.8272 24.7497 24.3442 22.9725 24.8486 20.8334C24.9375 20.4555 24.7033 20.0769 24.3255 19.9878Z" fill="url(#paint1_linear)"/>
<path d="M24.3276 17.1357C23.9394 17.1357 23.6245 17.4505 23.6245 17.8388V17.8531C23.6245 18.2413 23.9394 18.5561 24.3276 18.5561C24.7158 18.5561 25.0306 18.2413 25.0306 17.8531V17.8388C25.0306 17.4505 24.7158 17.1357 24.3276 17.1357Z" fill="url(#paint2_linear)"/>
<path d="M26.6278 2.31581L25.6452 0.613752C25.451 0.277517 25.0213 0.162275 24.6848 0.356408C24.3975 0.522276 24.2724 0.860058 24.3627 1.16472C21.0045 -0.103577 17.3208 -0.343484 13.7981 0.503151C9.56638 1.52029 5.84966 4.03249 3.33289 7.57716C0.840588 11.0874 -0.315562 15.3694 0.077767 19.6344C0.111376 19.9991 0.417799 20.273 0.777026 20.2729C0.798682 20.2729 0.820479 20.2719 0.842416 20.2699C1.22907 20.2342 1.51362 19.8919 1.47797 19.5052C0.727315 11.3653 6.16508 3.78394 14.1266 1.87038C17.5965 1.03647 21.2356 1.34648 24.4972 2.7341L23.9655 3.04116C23.6292 3.23536 23.514 3.66525 23.7081 4.00156C23.8384 4.22712 24.0747 4.35312 24.3177 4.35312C24.4369 4.35312 24.5579 4.32274 24.6685 4.25883L26.3705 3.27614C26.7068 3.08208 26.822 2.65205 26.6278 2.31581Z" fill="url(#paint3_linear)"/>
<path d="M35.8397 15.619C35.7881 15.2342 35.434 14.9639 35.0494 15.0158C34.6645 15.0674 34.3945 15.4213 34.4462 15.8061C35.534 23.908 30.4156 31.7085 22.5401 33.9508C19.168 34.911 15.6698 34.7918 12.3934 33.611L13.0582 33.1895C13.3861 32.9815 13.4833 32.5472 13.2754 32.2192C13.0675 31.8913 12.6332 31.7941 12.3051 32.002L10.6455 33.0544C10.3177 33.2622 10.2204 33.6962 10.4279 34.0242L11.4698 35.6702C11.6036 35.8817 11.8315 35.9974 12.0645 35.9974C12.193 35.9974 12.3232 35.9622 12.4398 35.8883C12.675 35.7395 12.7908 35.4744 12.7617 35.2153C14.4661 35.7372 16.2176 36 17.9766 36C19.6309 36 21.2919 35.7682 22.9252 35.3031C27.1112 34.1113 30.7204 31.447 33.0879 27.8009C35.4324 24.1903 36.4098 19.864 35.8397 15.619Z" fill="url(#paint4_linear)"/>
<path d="M9.50633 26.3668C9.50541 26.3656 9.50464 26.3645 9.50373 26.3633L5.92137 21.6514C5.78869 21.4769 5.58246 21.3743 5.3633 21.3738C5.36273 21.3738 5.36217 21.3738 5.36168 21.3738C5.14322 21.3738 4.93706 21.4754 4.80396 21.6488L1.20578 26.336C1.19741 26.3469 1.18939 26.358 1.18173 26.3693C0.420454 27.3326 0.00195312 28.5416 0.00195312 29.7811C0.00195312 32.7823 2.39898 35.224 5.34515 35.224C8.29133 35.224 10.6884 32.7822 10.6884 29.7811C10.6884 28.5417 10.2687 27.3301 9.50633 26.3668ZM5.34515 33.8178C3.17418 33.8178 1.40807 32.0069 1.40807 29.7811C1.40807 28.842 1.72939 27.9276 2.31292 27.2063C2.32832 27.1872 2.34266 27.1675 2.35581 27.1471L5.35901 23.235L8.37233 27.1985C8.37936 27.2083 8.3866 27.2179 8.39419 27.2273C8.96689 27.9451 9.28238 28.8521 9.28238 29.7811C9.28224 32.0069 7.51613 33.8178 5.34515 33.8178Z" fill="url(#paint5_linear)"/>
<path d="M7.66525 29.0781C7.27706 29.0781 6.9622 29.3929 6.9622 29.7812C6.9622 30.7003 6.23685 31.4481 5.34515 31.4481C4.95695 31.4481 4.64209 31.7629 4.64209 32.1511C4.64209 32.5394 4.95695 32.8542 5.34515 32.8542C7.01212 32.8542 8.36831 31.4756 8.36831 29.7812C8.36831 29.3929 8.05352 29.0781 7.66525 29.0781Z" fill="url(#paint6_linear)"/>
<path d="M34.8164 4.99297C34.8155 4.99178 34.8147 4.99065 34.8138 4.98945L31.2314 0.277594C31.0987 0.103149 30.8924 0.000562501 30.6733 0C30.6728 0 30.6722 0 30.6717 0C30.4533 0 30.2472 0.101602 30.114 0.274993L26.5158 4.96217C26.5075 4.97293 26.4997 4.98397 26.492 4.99515C25.7306 5.9585 25.312 7.1676 25.312 8.40721C25.312 11.4084 27.709 13.8501 30.6552 13.8501C33.6014 13.8501 35.9984 11.4084 35.9984 8.40721C35.9984 7.16788 35.5787 5.95625 34.8164 4.99297ZM30.6552 12.444C28.4842 12.444 26.7181 10.6331 26.7181 8.40721C26.7181 7.46819 27.0395 6.55384 27.6229 5.83243C27.6382 5.81345 27.6524 5.7939 27.6655 5.77372L30.6691 1.86118L33.6824 5.82463C33.6894 5.8344 33.6967 5.84403 33.7042 5.85346C34.2769 6.57128 34.5924 7.47824 34.5924 8.40721C34.5923 10.6332 32.8261 12.444 30.6552 12.444Z" fill="url(#paint7_linear)"/>
<path d="M32.9753 7.70422C32.5871 7.70422 32.2723 8.01901 32.2723 8.40728C32.2723 9.32641 31.5469 10.0742 30.6552 10.0742C30.267 10.0742 29.9521 10.389 29.9521 10.7772C29.9521 11.1655 30.267 11.4803 30.6552 11.4803C32.3222 11.4803 33.6784 10.1017 33.6784 8.40728C33.6784 8.01894 33.3636 7.70422 32.9753 7.70422Z" fill="url(#paint8_linear)"/>
</g>
<defs>
<linearGradient id="paint0_linear" x1="27.7008" y1="16.5593" x2="8.29932" y2="16.5593" gradientUnits="userSpaceOnUse">
<stop stop-color="#2063B1"/>
<stop offset="1" stop-color="#3CBAFC"/>
</linearGradient>
<linearGradient id="paint1_linear" x1="24.8675" y1="22.8047" x2="19.8198" y2="22.8047" gradientUnits="userSpaceOnUse">
<stop stop-color="#2063B1"/>
<stop offset="1" stop-color="#3CBAFC"/>
</linearGradient>
<linearGradient id="paint2_linear" x1="25.0306" y1="17.8459" x2="23.6245" y2="17.8459" gradientUnits="userSpaceOnUse">
<stop stop-color="#2063B1"/>
<stop offset="1" stop-color="#3CBAFC"/>
</linearGradient>
<linearGradient id="paint3_linear" x1="26.7221" y1="10.1389" x2="0.00244152" y2="10.1389" gradientUnits="userSpaceOnUse">
<stop stop-color="#2063B1"/>
<stop offset="1" stop-color="#3CBAFC"/>
</linearGradient>
<linearGradient id="paint4_linear" x1="35.9984" y1="25.5047" x2="10.3188" y2="25.5047" gradientUnits="userSpaceOnUse">
<stop stop-color="#2063B1"/>
<stop offset="1" stop-color="#3CBAFC"/>
</linearGradient>
<linearGradient id="paint5_linear" x1="10.6884" y1="28.2989" x2="0.00195317" y2="28.2989" gradientUnits="userSpaceOnUse">
<stop stop-color="#2063B1"/>
<stop offset="1" stop-color="#3CBAFC"/>
</linearGradient>
<linearGradient id="paint6_linear" x1="8.36831" y1="30.9662" x2="4.64209" y2="30.9662" gradientUnits="userSpaceOnUse">
<stop stop-color="#2063B1"/>
<stop offset="1" stop-color="#3CBAFC"/>
</linearGradient>
<linearGradient id="paint7_linear" x1="35.9984" y1="6.92506" x2="25.312" y2="6.92506" gradientUnits="userSpaceOnUse">
<stop stop-color="#2063B1"/>
<stop offset="1" stop-color="#3CBAFC"/>
</linearGradient>
<linearGradient id="paint8_linear" x1="33.6784" y1="9.59226" x2="29.9521" y2="9.59226" gradientUnits="userSpaceOnUse">
<stop stop-color="#2063B1"/>
<stop offset="1" stop-color="#3CBAFC"/>
</linearGradient>
<clipPath id="clip0">
<rect width="36" height="36" fill="white"/>
</clipPath>
</defs>
</svg>

<svg width="36" height="36" viewBox="0 0 36 36" fill="none" xmlns="http://www.w3.org/2000/svg"><g clip-path="url(#clip0)"><path d="M25.54 13.27l-.006-.009-6.947-8.944a.703.703 0 00-.553-.272h-.002c-.216 0-.42.1-.553.27l-6.977 8.897a.7.7 0 00-.036.05 9.716 9.716 0 00-2.167 6.11c0 5.35 4.352 9.702 9.701 9.702 5.35 0 9.7-4.352 9.7-9.701a9.72 9.72 0 00-2.16-6.103zM18 27.668c-4.574 0-8.295-3.721-8.295-8.295a8.31 8.31 0 011.897-5.28.696.696 0 00.055-.075l6.372-8.127 6.378 8.212a8.31 8.31 0 011.888 5.27c0 4.574-3.721 8.295-8.295 8.295z" fill="url(#paint0_linear)"/><path d="M24.326 19.988a.703.703 0 00-.846.523 5.446 5.446 0 01-3.224 3.776.703.703 0 10.535 1.3 6.855 6.855 0 004.058-4.754.703.703 0 00-.523-.845z" fill="url(#paint1_linear)"/><path d="M24.328 17.136a.703.703 0 00-.703.703v.014a.703.703 0 001.406 0v-.014a.703.703 0 00-.703-.703z" fill="url(#paint2_linear)"/><path d="M26.628 2.316L25.645.614a.703.703 0 00-1.282.55 18.006 18.006 0 00-10.565-.66A17.986 17.986 0 003.333 7.576 17.99 17.99 0 00.078 19.634a.703.703 0 101.4-.129C.728 11.365 6.165 3.784 14.127 1.87a16.598 16.598 0 0110.37.864l-.532.307a.703.703 0 10.704 1.218l1.701-.983a.703.703 0 00.258-.96z" fill="url(#paint3_linear)"/><path d="M35.84 15.619a.703.703 0 10-1.394.187c1.088 8.102-4.03 15.903-11.906 18.145-3.372.96-6.87.84-10.147-.34l.665-.421a.703.703 0 00-.753-1.188l-1.66 1.052a.703.703 0 00-.217.97l1.042 1.646a.702.702 0 001.292-.455c1.704.522 3.456.785 5.215.785 1.654 0 3.315-.232 4.948-.697a17.985 17.985 0 0010.163-7.502 17.99 17.99 0 002.752-12.182z" fill="url(#paint4_linear)"/><path d="M9.506 26.367l-.002-.004-3.583-4.712a.703.703 0 00-.558-.277h-.001a.703.703 0 00-.558.275l-3.598 4.687a5.517 5.517 0 00-1.204 3.445c0 3.001 2.397 5.443 5.343 5.443s5.343-2.442 5.343-5.443a5.52 5.52 0 00-1.182-3.414zm-4.16 7.45c-2.172 0-3.938-1.81-3.938-4.036 0-.939.321-1.853.905-2.575a.69.69 0 00.043-.059l3.003-3.912 3.013 3.963.022.03c.573.717.888 1.624.888 2.553 0 2.226-1.766 4.037-3.937 4.037z" fill="url(#paint5_linear)"/><path d="M7.665 29.078a.703.703 0 00-.703.703c0 .92-.725 1.667-1.617 1.667a.703.703 0 000 1.406c1.667 0 3.023-1.378 3.023-3.073a.703.703 0 00-.703-.703z" fill="url(#paint6_linear)"/><path d="M34.816 4.993l-.002-.004L31.23.278A.703.703 0 0030.673 0h-.001a.703.703 0 00-.558.275l-3.598 4.687a5.517 5.517 0 00-1.204 3.445c0 3.001 2.397 5.443 5.343 5.443s5.343-2.442 5.343-5.443a5.52 5.52 0 00-1.182-3.414zm-4.16 7.451c-2.172 0-3.938-1.81-3.938-4.037 0-.939.322-1.853.905-2.575a.706.706 0 00.043-.058l3.003-3.913 3.013 3.964.022.028c.573.718.888 1.625.888 2.554 0 2.226-1.766 4.037-3.937 4.037z" fill="url(#paint7_linear)"/><path d="M32.975 7.704a.703.703 0 00-.703.703c0 .92-.725 1.667-1.617 1.667a.703.703 0 000 1.406c1.667 0 3.023-1.378 3.023-3.073a.703.703 0 00-.703-.703z" fill="url(#paint8_linear)"/></g><defs><linearGradient id="paint0_linear" x1="27.701" y1="16.559" x2="8.299" y2="16.559" gradientUnits="userSpaceOnUse"><stop stop-color="#2063B1"/><stop offset="1" stop-color="#3CBAFC"/></linearGradient><linearGradient id="paint1_linear" x1="24.867" y1="22.805" x2="19.82" y2="22.805" gradientUnits="userSpaceOnUse"><stop stop-color="#2063B1"/><stop offset="1" stop-color="#3CBAFC"/></linearGradient><linearGradient id="paint2_linear" x1="25.031" y1="17.846" x2="23.625" y2="17.846" gradientUnits="userSpaceOnUse"><stop stop-color="#2063B1"/><stop offset="1" stop-color="#3CBAFC"/></linearGradient><linearGradient id="paint3_linear" x1="26.722" y1="10.139" x2=".002" y2="10.139" gradientUnits="userSpaceOnUse"><stop stop-color="#2063B1"/><stop offset="1" stop-color="#3CBAFC"/></linearGradient><linearGradient id="paint4_linear" x1="35.998" y1="25.505" x2="10.319" y2="25.505" gradientUnits="userSpaceOnUse"><stop stop-color="#2063B1"/><stop offset="1" stop-color="#3CBAFC"/></linearGradient><linearGradient id="paint5_linear" x1="10.688" y1="28.299" x2=".002" y2="28.299" gradientUnits="userSpaceOnUse"><stop stop-color="#2063B1"/><stop offset="1" stop-color="#3CBAFC"/></linearGradient><linearGradient id="paint6_linear" x1="8.368" y1="30.966" x2="4.642" y2="30.966" gradientUnits="userSpaceOnUse"><stop stop-color="#2063B1"/><stop offset="1" stop-color="#3CBAFC"/></linearGradient><linearGradient id="paint7_linear" x1="35.998" y1="6.925" x2="25.312" y2="6.925" gradientUnits="userSpaceOnUse"><stop stop-color="#2063B1"/><stop offset="1" stop-color="#3CBAFC"/></linearGradient><linearGradient id="paint8_linear" x1="33.678" y1="9.592" x2="29.952" y2="9.592" gradientUnits="userSpaceOnUse"><stop stop-color="#2063B1"/><stop offset="1" stop-color="#3CBAFC"/></linearGradient><clipPath id="clip0"><path fill="#fff" d="M0 0h36v36H0z"/></clipPath></defs></svg>
